X:22
T:Cercle 2 
R:Cercle 
N:
O:France
Z:<anamnese@laposte.net>
M:4/4
L:1/8
Q:1/4=160
K:C
AB | c2 cc de d2 | GG AB cB AA | Bc BE EE AB |
     c2 cc de d2 | GG AB cB AB | AG A2 AA3 |
g2 gg fe dG | GG3 a2 aa | ba ge ee fg | fe gf ed GG | GA Bc BA BA | GA2 AA3 |
